public/img/user_line_3.svg

<svg width="96" height="48" viewBox="0 0 96 48" fill="none" xmlns="http://www.w3.org/2000/svg">
<path d="M24 35H24.02M16.4 44H31.6C33.8402 44 34.9603 44 35.816 43.564C36.5686 43.1805 37.1805 42.5686 37.564 41.816C38 40.9603 38 39.8402 38 37.6V10.4C38 8.15979 38 7.03968 37.564 6.18404C37.1805 5.43139 36.5686 4.81947 35.816 4.43597C34.9603 4 33.8402 4 31.6 4H16.4C14.1598 4 13.0397 4 12.184 4.43597C11.4314 4.81947 10.8195 5.43139 10.436 6.18404C10 7.03968 10 8.15979 10 10.4V37.6C10 39.8402 10 40.9603 10.436 41.816C10.8195 42.5686 11.4314 43.1805 12.184 43.564C13.0397 44 14.1598 44 16.4 44ZM25 35C25 35.5523 24.5523 36 24 36C23.4477 36 23 35.5523 23 35C23 34.4477 23.4477 34 24 34C24.5523 34 25 34.4477 25 35Z" stroke="#8970EF" stroke-width="1.5" stroke-linecap="round" stroke-linejoin="round"/>
<path d="M56 34L68 22L56 10M72 38H88" stroke="#8970EF" stroke-width="1.5" stroke-linecap="round" stroke-linejoin="round"/>
</svg>

<svg xmlns="http://www.w3.org/2000/svg" width="96" height="48" fill="none" viewBox="0 0 96 48">
  <path data-stroke="true" stroke-linecap="round" stroke-linejoin="round" stroke-width="1.5"
    d="M24 35h.02m-7.62 9h15.2c2.24 0 3.36 0 4.216-.436a4 4 0 0 0 1.748-1.748C38 40.96 38 39.84 38 37.6V10.4c0-2.24 0-3.36-.436-4.216a4 4 0 0 0-1.748-1.748C34.96 4 33.84 4 31.6 4H16.4c-2.24 0-3.36 0-4.216.436a4 4 0 0 0-1.748 1.748C10 7.04 10 8.16 10 10.4v27.2c0 2.24 0 3.36.436 4.216a4 4 0 0 0 1.748 1.748C13.04 44 14.16 44 16.4 44m8.6-9a1 1 0 1 1-2 0 1 1 0 0 1 2 0M56 34l12-12-12-12m16 28h16"></path>
</svg>
